X:043
T:New so Bell TS.043
M:C|
L:1/8
Q:1/2=75
S:Thomas Sands’ MS,1810,Lincolnshire
R:air
O:England;Lincolnshire
Z:vmp.Ruairidh Greig, 2011
K:C
[V:1]|:c4e3f|efedc2ef|g2g2c2d2|e8:|
[V:2]|:z8|z8|z8|z8:|
[V:1]|:z8|z8|z8|z8|
[V:2]|:A,2E,2F,2C,2|D,E,D,C,B,,2C,2|D,C,D,B,,E,2E,,2|A,,8|
[V:1]”sic”g2|agfg gfeg|fedf edce|g2g2g2ag|f2efg4|
[V:2]z2|z8|z8|z8|z8|
[V:1]z8|c2cde2c2|z8|d2def2d2|
[V:2]A,,2A,,B,,C,2A,,2|z8|B,,2B,,C,D,2B,,2|z8|
[V:1]z8|c2cde2c2|f2d2g2B2|c8|
[V:2]A,,2A,,B,,C,2A,,2|z8|D,2B,,2E,2E,,2|C,8|
[V:1]g2ggg4|z8|a2aaa4|z8|
[V:2]z8|A,,2A,,B,,C,2A,,2|z8|B,,2B,,C,D,2B,,2|
[V:1]g2ggg4|z8|f2d2g2B2|c8:|
[V:2]z8|A,,2A,,B,,C,2A,,2|D,2B,,2E,2E,,2|[A,,8C,8]:|

